svg/device/rss_2_line.svg

<?xml version="1.0" encoding="UTF-8"?>
<svg width="24px" height="24px" viewBox="0 0 24 24" version="1.1" xmlns="http://www.w3.org/2000/svg" xmlns:xlink="http://www.w3.org/1999/xlink">
    <title>rss_2_line</title>
    <g id="Icon" stroke="none" stroke-width="1" fill="none" fill-rule="evenodd">
        <g id="Device" transform="translate(-240.000000, -288.000000)" fill-rule="nonzero">
            <g id="rss_2_line" transform="translate(240.000000, 288.000000)">
                <path d="M24,0 L24,24 L0,24 L0,0 L24,0 Z M12.5935,23.2578 L12.5819,23.2595 L12.5109,23.295 L12.4919,23.2987 L12.4767,23.295 L12.4057,23.2595 C12.3958,23.2564 12.387,23.259 12.3821,23.2649 L12.378,23.2758 L12.3609,23.7031 L12.3659,23.7235 L12.3769,23.7357 L12.4805,23.8097 L12.4953,23.8136 L12.5071,23.8097 L12.6107,23.7357 L12.6233,23.7197 L12.6267,23.7031 L12.6096,23.2758 C12.6076,23.2657 12.601,23.2593 12.5935,23.2578 Z M12.8584,23.1453 L12.8445,23.1473 L12.6598,23.2397 L12.6499,23.2499 L12.6472,23.2611 L12.6651,23.6906 L12.6699,23.7034 L12.6784,23.7105 L12.8793,23.8032 C12.8914,23.8069 12.9022,23.803 12.9078,23.7952 L12.9118,23.7812 L12.8777,23.1665 C12.8753,23.1546 12.8674,23.147 12.8584,23.1453 Z M12.143,23.1473 C12.1332,23.1424 12.1222,23.1453 12.1156,23.1526 L12.1099,23.1665 L12.0758,23.7812 C12.0751,23.7927 12.0828,23.8019 12.0926,23.8046 L12.1083,23.8032 L12.3092,23.7105 L12.3186,23.7024 L12.3225,23.6906 L12.3404,23.2611 L12.3372,23.2485 L12.3278,23.2397 L12.143,23.1473 Z" id="MingCute"></path>
                <path d="M5.50004,17 C6.32846,17 7.00004,17.6716 7.00004,18.5 C7.00004,19.3284 6.32846,20 5.50004,20 C4.67161,20 4.00004,19.3284 4.00004,18.5 C4.00004,17.6716 4.67161,17 5.50004,17 Z M5.50004,3 C14.0605,3 21,9.93959 21,18.5 C21,18.6786 20.997,18.8566 20.991,19.0339 C20.9723,19.5858 20.5097,20.0181 19.9577,19.9994 C19.4057,19.9807 18.9734,19.5181 18.9922,18.9661 C18.9974,18.8114 19,18.656 19,18.5 C19,11.0442 12.9559,5 5.50004,5 C5.34399,5 5.1886,5.00264 5.0339,5.00789 C4.48194,5.02659 4.01931,4.59429 4.00061,4.04233 C3.98191,3.49036 4.4142,3.02774 4.96617,3.00903 C5.14343,3.00303 5.3214,3 5.50004,3 Z M5.50004,10 C10.1945,10 14.0000029,13.8056 14.0000029,18.5 C14.0000029,18.6899 13.9938,18.8786 13.9815,19.0657 C13.9452,19.6168 13.469,20.0341 12.918,19.9978 C12.3669,19.9616 11.9495,19.4854 11.9858,18.9343 C11.9952,18.7909 12.0000029,18.6461 12.0000029,18.5 C12.0000029,14.9101 9.08989,12 5.50004,12 C5.35395,12 5.20913,12.0048 5.06572,12.0142 C4.51462,12.0505 4.03847,11.6332 4.0022,11.0821 C3.96592,10.531 4.38327,10.0548 4.93436,10.0186 C5.12147,10.0062 5.31009,10 5.50004,10 Z" id="形状" fill="#09244B"></path>
            </g>
        </g>
    </g>
</svg>

<svg xmlns="http://www.w3.org/2000/svg" width="24" height="24"><g fill="none" fill-rule="nonzero"><path d="M24 0v24H0V0h24ZM12.594 23.258l-.012.002-.071.035-.02.004-.014-.004-.071-.036c-.01-.003-.019 0-.024.006l-.004.01-.017.428.005.02.01.013.104.074.015.004.012-.004.104-.074.012-.016.004-.017-.017-.427c-.002-.01-.009-.017-.016-.018Zm.264-.113-.014.002-.184.093-.01.01-.003.011.018.43.005.012.008.008.201.092c.012.004.023 0 .029-.008l.004-.014-.034-.614c-.003-.012-.01-.02-.02-.022Zm-.715.002a.023.023 0 0 0-.027.006l-.006.014-.034.614c0 .012.007.02.017.024l.015-.002.201-.093.01-.008.003-.011.018-.43-.003-.012-.01-.01-.184-.092Z"/><path fill="#09244B" d="M5.5 17a1.5 1.5 0 1 1 0 3 1.5 1.5 0 0 1 0-3Zm0-14C14.06 3 21 9.94 21 18.5c0 .179-.003.357-.009.534a1 1 0 0 1-1.999-.068c.005-.155.008-.31.008-.466C19 11.044 12.956 5 5.5 5c-.156 0-.311.003-.466.008a1 1 0 0 1-.068-1.999C5.143 3.003 5.321 3 5.5 3Zm0 7a8.5 8.5 0 0 1 8.482 9.066 1 1 0 0 1-1.996-.132 6.5 6.5 0 0 0-6.92-6.92 1 1 0 1 1-.132-1.995c.187-.013.376-.019.566-.019Z"/></g></svg>
